X: 17892
T: Hosley's
R: hornpipe
M: 4/4
K: Dmajor
(3ABc|dcdB AFDF|GFEF GBAG|FEDE FAGF|G2E2E2 FG|
Acec defd|Adcd BGEG|FAdf EAce|d2d2d2:|
|:AG|FAdf Adfa|fdAF EAce|gfed e2 AG|FAdf Adfa|
gfed edeg|fdAF DFAd|FAdf EAce|d5:|

